!! 00000] TT[WS
!!!OTL: Yuo beijing
!!!ARE: Asia, China, Shanxi Qinyuan
!! Ethnic Group: Han
!! WII, 267 (2)
!!!SCT: J0800
!!!YEM: Copyright 1995, estate of Helmut Schaffrath.
**kern
*ICvox
*Ivox
*M2/4
*k[f#c#g#]
*A:
{8r
8ee
8cc#
8b
=1
8ee
8dd
8cc#
8b
=2
8r
8ee
8ff#
8ee
=3
8cc#
8b
8f#
8a}
=4
{8r
8ee
8cc#
8ee
=5
8b
8cc#
4b
=6
8a
8b
8a
8f#
=7
2e}
=8
{8a
8g#
4a
=9
8r
8b
4ee
=10
4ee
4a
=11
8b
8f#
4e}
=12
{8b
8cc#
4ee
=13
8b
8cc#
4ee
=14
8b
8cc#
8b
8cc#
=15
8b
8cc#
4ee}
=16
{2b
=17
8r
8b
8b
8b
=18
8ee
8ff#
4ee
=19
8cc#
8b
8f#
8a
=20
2b
=21
4.b
8f#
=22
2e}
==
!!!AGN: Xiaodiao. Xuanchuan, Xinminge
!!!ONB: ESAC (Essen Associative Code) Database: CHINA
!!!AMT: simple duple
!!!AIN: vox
!!!EED: Helmut Schaffrath
!!!EEV: 1.0
*-
